icons/pico8.svg

<!--
  - The MIT License (MIT)
  -
  - Copyright (c) 2015-2024 Elior "Mallowigi" Boukhobza
  -
  - Permission is hereby granted, free of charge, to any person obtaining a copy
  - of this software and associated documentation files (the "Software"), to deal
  - in the Software without restriction, including without limitation the rights
  - to use, copy, modify, merge, publish, distribute, sublicense, and/or sell
  - copies of the Software, and to permit persons to whom the Software is
  - furnished to do so, subject to the following conditions:
  -
  - The above copyright notice and this permission notice shall be included in all
  - copies or substantial portions of the Software.
  -
  - THE SOFTWARE IS PROVIDED "AS IS", WITHOUT WARRANTY OF ANY KIND, EXPRESS OR
  - IMPLIED, INCLUDING BUT NOT LIMITED TO THE WARRANTIES OF MERCHANTABILITY,
  - FITNESS FOR A PARTICULAR PURPOSE AND NONINFRINGEMENT. IN NO EVENT SHALL THE
  - AUTHORS OR COPYRIGHT HOLDERS BE LIABLE FOR ANY CLAIM, DAMAGES OR OTHER
  - LIABILITY, WHETHER IN AN ACTION OF CONTRACT, TORT OR OTHERWISE, ARISING FROM,
  - OUT OF OR IN CONNECTION WITH THE SOFTWARE OR THE USE OR OTHER DEALINGS IN THE
  - SOFTWARE.
  -
  -->

<svg version="1.1" viewBox="0 0 512 512" width="16px" height="16px" xmlns="http://www.w3.org/2000/svg">
  <path fill="#ff0052" data-iconColor="PICO-8"
        d="m204.2871094 0v101.8828125l-102.1425781 0.26171875-0.26171875 102.1425781h-101.8828125v103.4257812h101.8886719v102.3984375h102.3984375v101.8886719h103.4257812v-101.8886719h102.3984375v-102.3984375h101.8886719v-103.4257812h-101.8886719v-102.3984375h-102.3984375v-101.8886719h-103.4257812zm1.025390625 102.9121094h101.375v102.4003906h102.4003906v101.3710938l-102.1445312 0.259765625-0.259765625 102.1445312h-101.3710938v-102.4003906h-102.4003906v-101.375h102.4003906v-102.4003906z"/>
</svg>

<svg xmlns="http://www.w3.org/2000/svg" viewBox="0 0 512 512"><path fill="#ff0052" d="M204.287 0v101.883l-102.142.262-.262 102.142H0v103.426h101.889V410.11h102.398V512h103.426V410.111H410.11V307.713H512V204.287H410.111V101.89H307.713V0zm1.026 102.912h101.375v102.4h102.4v101.372l-102.145.26-.26 102.144h-101.37v-102.4h-102.4V205.313h102.4z" data-iconColor="PICO-8"/></svg>
